X:590
T: ZU COBLENZ AUF DER BRUECKE
N: E0550
O: Europa, Mitteleuropa, Deutschland
R: Liebes - Lied
M: 6/8
L: 1/8
K: F
C | A2AAGA | c3A2
F | B2BBcd | c3z2
A | c2Acfd | c3B2
B | ABAGFG | F3z2

